X: 2
T:Behind the Haystack
M:6/8
L:1/8
C:Bulmer and Sharpley
R:Jig
K:D
A|d2 e fdB|d2 e fdB|AFE EFE|AFE EFA|d2 e fdB|
d2 e fdB|AFD DED|AFD D2::A|~B3 BAF|ABc ~d2B|AFE EFE|
AFE EFA|~B3 BAF|ABc d2B|AFD DED|AFD D2::f|~g3~f3|ede fdB|
AFE EFE|AFE EFA|gbg faf|ede fdB|AFD DED|AFD D2:|
